modules/zondicons/icons/share-01.svg

<?xml version="1.0" encoding="UTF-8" standalone="no"?>
<svg width="20px" height="20px" viewBox="0 0 20 20" version="1.1" xmlns="http://www.w3.org/2000/svg" xmlns:xlink="http://www.w3.org/1999/xlink">
    <!-- Generator: Sketch 3.7.2 (28276) - http://www.bohemiancoding.com/sketch -->
    <title>share-01</title>
    <desc>Created with Sketch.</desc>
    <defs></defs>
    <g id="Page-1" stroke="none" stroke-width="1" fill="none" fill-rule="evenodd">
        <g id="share-01" fill="#000000">
            <path d="M9,3.82842712 L9,8 L8,8 L8,10 L6,10 L6,18 L14,18 L14,10 L12,10 L12,8 L11,8 L11,16 L9,16 L9,8 L6.0085302,8 C4.90195036,8 4,8.8992496 4,10.0085302 L4,17.9914698 C4,19.0980496 4.8992496,20 6.0085302,20 L13.9914698,20 C15.0980496,20 16,19.1007504 16,17.9914698 L16,10.0085302 C16,8.90195036 15.1007504,8 13.9914698,8 L11,8 L11,3.82842712 L14.0710678,6.89949494 L15.4852814,5.48528137 L10.7071068,0.707106781 L10,4.18784448e-14 L4.51471863,5.48528137 L5.92893219,6.89949494 L9,3.82842712 Z" id="Combined-Shape"></path>
        </g>
    </g>
</svg>

<svg width="20" height="20" viewBox="0 0 20 20" xmlns="http://www.w3.org/2000/svg"><path d="M9 3.828V8H8v2H6v8h8v-8h-2V8h-1v8H9V8H6.009A2.01 2.01 0 0 0 4 10.009v7.982C4 19.098 4.9 20 6.009 20h7.982A2.01 2.01 0 0 0 16 17.991V10.01A2.01 2.01 0 0 0 13.991 8H11V3.828L14.071 6.9l1.414-1.414L10.707.707 10 0 4.515 5.485 5.929 6.9 9 3.83z" fill="#000" fill-rule="evenodd"/></svg>
